X: 3288
M: 6/8
L: 1/8
K: Am
g |\
dcd efg | age a3 | gea edB | A3 A2 :|
|: ^g |\
a^ga efg | a^ge a3 | =gea g^fg | BGB G3 |\


